icons/azure-icon.svg

<?xml version="1.0" encoding="UTF-8"?>
<svg width="256px" height="199px" viewBox="0 0 256 199" version="1.1" xmlns="http://www.w3.org/2000/svg" xmlns:xlink="http://www.w3.org/1999/xlink">
    <title>path21</title>
    <g stroke="none" stroke-width="1" fill="none" fill-rule="evenodd">
        <path d="M118.431947,187.698037 C151.322003,181.887937 178.48731,177.08008 178.799309,177.013916 L179.366585,176.893612 L148.31513,139.958881 C131.236843,119.644776 117.26369,102.945381 117.26369,102.849118 C117.26369,102.666861 149.32694,14.3716012 149.507189,14.057257 C149.567455,13.952452 171.38747,51.62411 202.400338,105.376064 C231.435152,155.699606 255.372949,197.191547 255.595444,197.580359 L255.999996,198.287301 L157.315912,198.274572 L58.6318456,198.261895 L118.431947,187.698073 L118.431947,187.698037 Z M-4.03864498e-06,176.434723 C-4.03864498e-06,176.382721 14.631291,150.983941 32.5139844,119.992969 L65.0279676,63.6457518 L102.919257,31.8473052 C123.759465,14.3581634 140.866667,0.0274832751 140.935253,0.00062917799 C141.003839,-0.0247829554 140.729691,0.665213042 140.326034,1.53468179 C139.922377,2.40415053 121.407304,42.1170321 99.1814268,89.7855264 L58.7707514,176.455514 L29.3853737,176.492355 C13.2234196,176.512639 -4.03864498e-06,176.486664 -4.03864498e-06,176.434703 L-4.03864498e-06,176.434723 Z" fill="#0089D6" fill-rule="nonzero"></path>
    </g>
</svg>

<svg xmlns="http://www.w3.org/2000/svg" viewBox="0 0 256 198.287">
  <path fill="#0089d6" fill-rule="nonzero" d="M118.432 187.698c32.89-5.81 60.055-10.618 60.367-10.684l.568-.12-31.052-36.935c-17.078-20.314-31.051-37.014-31.051-37.11 0-.182 32.063-88.477 32.243-88.792.06-.104 21.88 37.567 52.893 91.32 29.035 50.323 52.973 91.815 53.195 92.203l.405.707-98.684-.012-98.684-.013 59.8-10.564zM0 176.435c0-.052 14.631-25.451 32.514-56.442l32.514-56.347 37.891-31.799C123.76 14.358 140.867.027 140.935.001c.069-.026-.205.664-.609 1.534s-18.919 40.582-41.145 88.25l-40.41 86.67-29.386.037c-16.162.02-29.385-.005-29.385-.057z"/>
</svg>
